X: 8905
T: Curlew, The
R: jig
M: 6/8
K: Dmajor
|:d3 A2 d|B>AA d>BA|d3 A2 d|B>AA a>ef|
d3 A2 d|B>AA d>BA|g2 f e>fd|c>AA a>ef:|
|:d3 f2 d|a>ef d>BA|d3 f2 d|a>aa f>ef|
d3 f2 d|a>ef d>BA|g2 f e>fd|c>AA a>ef:|
|:d3 G>BA|d>Bd e>cA|d3 G>BB|A>ce a>ef|
d3 G>BA|d>Bd e>cA|g2 f e>fd|c>AA a>ef:|
|:d3 a2 f|d>dd e>cA|d3 a2 f|d>dd a>ef|
[1 d3 a2 f|d>dd e>cA|g2 f e>fd|c>AA a>ef:|
[2 g>fg efd|G>Bd e>cA|g2 f e>fd|c>AA a>ef||

